X: 3
T: The Siege Of Ennis
R: polka
M: 2/4
L: 1/8
K: Dmaj
A>B AG|FA de|fa/f/ ef/e/|dB Bd|A>B AG|FA de|fa/f/ ef/e/|1d2 dB:|2d2 de|||fa af|gb ba|fa/f/ ef/e/|dB Bd|fa af|gb b>c'|d'/c'/b c'a|b2 bc'|d'b c'a|ba fe|fa/f/ ef/e/|dB Bd|A>B AG|FA de|fa/f/ ef/e/|d4 d2||


Tune 1640	Setting 28335

